X: 22
T:Fire on the Mountain
M:4/4
L:1/8
R:reel
Z:Transcribed by Nigel Gathere
K:A
cd| &quot;A&quot;efed cAcd| efae fecd| efed cBAc|&quot;E&quot;BAGB &quot;A&quot;A2 :| !
K:D
FG|&quot;D&quot; ABAG FDFG| ABdA BAFG| ABAG FEDF| &quot;E&quot; EDCE &quot;D&quot;D2:| !
K:A
cd|&quot;A&quot;efed cBAc|&quot;E&quot;BAGB &quot;A&quot;A2 ||
